X: 239
T:Verbum caro factum est
N: Derived from Jos2016-Verbum_caro_factum_est.krn
C: Josquin des Prez
%%abc-version 2.0
%%abcx-abcm2ps-target-version 5.9.1 (29 Sep 2008)
%%abc-creator hum2abc beta
%%abcx-conversion-date 2019/02/12 16:15:50
%%abc-edited-by Jesse Rodin
%%abc-edited-by Joel Chapman 2012/05/01
%%abcx-initial-encoding-date 2012/05/01/
%%humdrum-veritas 384937706
%%humdrum-veritas-data 3641922615
%%linebreak <none>
%%barnumbers 0
L: 1/4
M: 2/1
Q: 1/2=120
V: 1 clef=treble
V: 2 clef=treble-8
V: 3 clef=treble-8
V: 4 clef=bass
V: 5 clef=bass
K: C
[V:1] z8 | 
[V:2] z8 | 
[V:3] D4G4- | 
[V:4] z8 | 
[V:5] z8 | 
[V:1] z8 | 
[V:2] z8 | 
[V:3] G2FEF4 | 
[V:4] z4D,4 | 
[V:5] z8 | 
[V:1] D4G4- | 
[V:2] z2d4cB | 
[V:3] G4G4 | 
[V:4] G,4G,F,E,D, | 
[V:5] z8 | 
[V:1] G2FEF4 | 
[V:2] cBAGA4 | 
[V:3] z4z2d2- | 
[V:4] E,4D,4 | 
[V:5] z4D,4 | 
[V:1] G4G4 | 
[V:2] G4z4 | 
[V:3] d2cBcBAG | 
[V:4] z2E,2C,2E,2 | 
[V:5] G,6F,E, | 
[V:1] z4D4 | 
[V:2] A4d4- | 
[V:3] A4G4 | 
[V:4] D,4G,,2G,2- | 
[V:5] F,4G,4 | 
[V:1] G6FE | 
[V:2] d2cBc4 | 
[V:3] G4G4 | 
[V:4] G,F,E,D,E,4 | 
[V:5] G,,4z4 | 
[V:1] F4G4 | 
[V:2] d4e4- | 
[V:3] A4c4- | 
[V:4] D,4z4 | 
[V:5] z8 | 
[V:1] G4z2F2- | 
[V:2] e4d4 | 
[V:3] c4A4- | 
[V:4] C,4D,2D,2- | 
[V:5] z8 | 
[V:1] FEFGA4 | 
[V:2] d6c2 | 
[V:3] A8 | 
[V:4] D,C,D,E,F,G,A,F, | 
[V:5] z8 | 
[V:1] z2B3ABc | 
[V:2] B3cd4 | 
[V:3] G8 | 
[V:4] G,6G,A, | 
[V:5] z2G,2G,,2G,2- | 
[V:1] d4z4 | 
[V:2] G4z2g2- | 
[V:3] G8 | 
[V:4] B,CD3B,CB, | 
[V:5] G,F,E,D,E,4 | 
[V:1] z2D3CDE | 
[V:2] gff3edc | 
[V:3] A8- | 
[V:4] D4D,4 | 
[V:5] D,4z2D,2- | 
[V:1] FEFGA4 | 
[V:2] B4D2d2- | 
[V:3] A8 | 
[V:4] z4D,4 | 
[V:5] D,C,D,E,F,G,A,F, | 
[V:1] D8 | 
[V:2] d2G2g3f | 
[V:3] B8 | 
[V:4] z2G,2G,,2G,2- | 
[V:5] G,8 | 
[V:1] z8 | 
[V:2] edd4^c2 | 
[V:3] G8 | 
[V:4] G,F,E,D,E,4 | 
[V:5] z8 | 
[V:1] z2D3CDE | 
[V:2] d8- | 
[V:3] A8- | 
[V:4] D,8 | 
[V:5] z4z2D,2- | 
[V:1] FEFGA4 | 
[V:2] d8- | 
[V:3] A8 | 
[V:4] z4D,4 | 
[V:5] D,C,D,E,F,G,A,F, | 
[V:1] B3cd2DE | 
[V:2] d8 | 
[V:3] G8 | 
[V:4] G,,2G,3A,_B,2- | 
[V:5] G,4G,,4 | 
[V:1] FGA3GF2 | 
[V:2] z2d2f3e | 
[V:3] F8 | 
[V:4] B,A,F,3G,A,2- | 
[V:5] D,6D,2 | 
[V:1] E2c2c2c2 | 
[V:2] c3de4 | 
[V:3] A4G4- | 
[V:4] A,G,E,3F,G,2- | 
[V:5] A,,4C,4 | 
[V:1] B4A4 | 
[V:2] d8- | 
[V:3] G4A4- | 
[V:4] G,F,D,3C,D,E, | 
[V:5] G,,4D,4- | 
[V:1] z2A2_BAGF | 
[V:2] d4z2d2- | 
[V:3] A4G4- | 
[V:4] F,G,A,F,G,F,E,D, | 
[V:5] D,4G,,4 | 
[V:1] G4F4 | 
[V:2] dccB/c/d2f2- | 
[V:3] G4A4- | 
[V:4] E,4D,4- | 
[V:5] z4z2D,2 | 
[V:1] z2F3EFG | 
[V:2] fedcd4 | 
[V:3] A4A4 | 
[V:4] D,4z4 | 
[V:5] D,2D,3C,D,E, | 
[V:1] ABc4c2- | 
[V:2] c8- | 
[V:3] A4A2A2- | 
[V:4] z4z2E,2 | 
[V:5] F,G,A,2A,,4- | 
[V:1] cBAG/F/E2A2- | 
[V:2] c4z2A2- | 
[V:3] AGABcdec | 
[V:4] F,2E,2A,4 | 
[V:5] A,,4A,,4 | 
[V:1] A2G4^F2 | 
[V:2] A2Bcd4 | 
[V:3] d2B2A4 | 
[V:4] z4z2A,2 | 
[V:5] D,8 | 
[V:1] G8- | 
[V:2] z2B3cd2 | 
[V:3] G8- | 
[V:4] B,3CD2G,A, | 
[V:5] G,,8- | 
[V:1] G4z2G2- | 
[V:2] GABcd3c/d/ | 
[V:3] G8 | 
[V:4] B,CD4G,2- | 
[V:5] G,,8 | 
[V:1] GAF2G2A2 | 
[V:2] e2d4c2 | 
[V:3] z8 | 
[V:4] G,F,D,2E,4 | 
[V:5] z4z2A,,2 | 
[V:1] F6D2 | 
[V:2] d8 | 
[V:3] z2d3cBA | 
[V:4] D,8- | 
[V:5] _B,,3C,D,2G,,A,, | 
[V:1] D8 | 
[V:2] z2A2_B3A | 
[V:3] G2F2G3A | 
[V:4] D,4z4 | 
[V:5] _B,,C,D,2G,,2G,2- | 
[V:1] z4G4 | 
[V:2] G2F2G3A | 
[V:3] Bcd4c2 | 
[V:4] z8 | 
[V:5] G,F,D,2E,4 | 
[V:1] F3EFGA2- | 
[V:2] _B2A4D2 | 
[V:3] d4A2d2- | 
[V:4] z2D,3E,F,2 | 
[V:5] D,4z2D,2 | 
[V:1] AGG3^F/E/F2 | 
[V:2] d8 | 
[V:3] d2B2A4 | 
[V:4] D,4z2D,2- | 
[V:5] B,,2G,,2D,4 | 
[V:1] G8 | 
[V:2] B4e4 | 
[V:3] G8 | 
[V:4] D,2G,3F,G,A, | 
[V:5] G,,4C,4 | 
[V:1] z8 | 
[V:2] d2c2d4 | 
[V:3] z4G4 | 
[V:4] B,2C4B,2 | 
[V:5] B,,2A,,2G,,4 | 
[V:1] G4c4 | 
[V:2] z4c4 | 
[V:3] c4z4 | 
[V:4] C2C,4F,2- | 
[V:5] z8 | 
[V:1] z4z2c2- | 
[V:2] f8 | 
[V:3] c3B/c/d2c2- | 
[V:4] F,2F,3E,F,G, | 
[V:5] z8 | 
[V:1] c2d2B4 | 
[V:2] f4g4 | 
[V:3] cAf2e2d2 | 
[V:4] A,2B,2G,4 | 
[V:5] z8 | 
[V:1] A4z2A2- | 
[V:2] e4d4 | 
[V:3] cBc2d2D2- | 
[V:4] A,4D,4 | 
[V:5] z8 | 
[V:1] AGABc2dc | 
[V:2] f4e2d2 | 
[V:3] DEFGA2B2 | 
[V:4] z8 | 
[V:5] z8 | 
[V:1] BAd3^cc2 | 
[V:2] g3fe4 | 
[V:3] G4A4 | 
[V:4] z4A,,4 | 
[V:5] z8 | 
[V:1] d8- | 
[V:2] d4z4 | 
[V:3] D8 | 
[V:4] D,3E,F,G,A,F, | 
[V:5] z4D,4 | 
[V:1] d8 | 
[V:2] d4g4- | 
[V:3] z8 | 
[V:4] G,2B,3A,B,C | 
[V:5] G,4z2G,2- | 
[V:1] z8 | 
[V:2] g4z2g2 | 
[V:3] z4G4 | 
[V:4] D6B,2 | 
[V:5] G,F,G,A,B,2G,2 | 
[V:1] z8 | 
[V:2] e2f2g4 | 
[V:3] c4c4 | 
[V:4] C2A,4G,2 | 
[V:5] A,2F,2E,4 | 
[V:1] z8 | 
[V:2] f4e2d2- | 
[V:3] d4B4 | 
[V:4] A,2D,2E,2G,2 | 
[V:5] D,4z2G,,2 | 
[V:1] z8 | 
[V:2] d2c3de2- | 
[V:3] A4c4- | 
[V:4] F,2A,4G,2 | 
[V:5] D,2F,4E,2 | 
[V:1] z8 | 
[V:2] e2c2f4 | 
[V:3] c4A4- | 
[V:4] E,2A,3D,A,2- | 
[V:5] C,2F,4E,D, | 
[V:1] z4z2A2 | 
[V:2] e2d4^c2 | 
[V:3] A4A4 | 
[V:4] A,2F,2E,4 | 
[V:5] C,2D,2A,,4 | 
[V:1] FGA2D2G2- | 
[V:2] d4z2G2 | 
[V:3] z4G4- | 
[V:4] z2D,2B,,2E,2 | 
[V:5] D,4z4 | 
[V:1] GFD3EFG | 
[V:2] d8 | 
[V:3] G4A4- | 
[V:4] D,3E,F,4- | 
[V:5] G,,4D,4 | 
[V:1] ABc3BGA | 
[V:2] c8 | 
[V:3] A4G4- | 
[V:4] F,2E,2E,4 | 
[V:5] A,,4C,4 | 
[V:1] Bcd3cA2 | 
[V:2] B2AGA4 | 
[V:3] G4F4 | 
[V:4] D,8 | 
[V:5] G,,4D,4 | 
[V:1] B3cd4 | 
[V:2] G4z2g2- | 
[V:3] G4G4- | 
[V:4] z2G,3A,B,C | 
[V:5] G,,8 | 
[V:1] G8 | 
[V:2] gfd2e4 | 
[V:3] G4z2G2- | 
[V:4] D2B,2C2C,2 | 
[V:5] z2G,,2C,4 | 
[V:1] z4z2A2- | 
[V:2] d2d4c2 | 
[V:3] GFD2F4 | 
[V:4] G,4A,4- | 
[V:5] B,,4z4 | 
[V:1] AGFED2E2- | 
[V:2] d4z4 | 
[V:3] D3EF2G2- | 
[V:4] A,4z2C2- | 
[V:5] z2D,4C,2- | 
[V:1] EDD4^C2 | 
[V:2] z4z2e2 | 
[V:3] G2F2E4 | 
[V:4] C2A,2A,4- | 
[V:5] C,2D,2A,,4 | 
[V:1] D4z4 | 
[V:2] fdf3de2 | 
[V:3] D4z4 | 
[V:4] A,2G,F,_B,2A,2- | 
[V:5] z2D,4C,2 | 
[V:1] z4z2A2 | 
[V:2] d2B2c4 | 
[V:3] D4C4 | 
[V:4] A,G,G,4^F,2 | 
[V:5] B,,2G,,2A,,4 | 
[V:1] B3cd2D2- | 
[V:2] B8 | 
[V:3] D8 | 
[V:4] G,8 | 
[V:5] G,,8 | 
[V:1] D2CB,A,4 | 
[V:2] z8 | 
[V:3] z2G4F2 | 
[V:4] z4z2A,2 | 
[V:5] G,,4D,4 | 
[V:1] z2D4C2 | 
[V:2] z8 | 
[V:3] G3FG2A2 | 
[V:4] B,3A,B,2C2 | 
[V:5] z8 | 
[V:1] D4E4 | 
[V:2] z2d4c2 | 
[V:3] F2G2E4 | 
[V:4] A,2B,2G,4 | 
[V:5] z8 | 
[V:1] F2A2B2c2- | 
[V:2] d3cd2e2 | 
[V:3] D4z4 | 
[V:4] z4z2A,2- | 
[V:5] z8 | 
[V:1] cBA4G2 | 
[V:2] c2d2B4 | 
[V:3] z2f2e3d | 
[V:4] A,2D,2E,4 | 
[V:5] z8 | 
[V:1] A4z4 | 
[V:2] A4z4 | 
[V:3] c2d2B4 | 
[V:4] F,4G,4 | 
[V:5] z2D,2G,,2G,2- | 
[V:1] z8 | 
[V:2] d6d2 | 
[V:3] A4z4 | 
[V:4] D,4z2G,2- | 
[V:5] G,2F,2G,4 | 
[V:1] z8 | 
[V:2] d4c4 | 
[V:3] G6G2 | 
[V:4] G,F,D,2E,4 | 
[V:5] G,,4z2C,2 | 
[V:1] z8 | 
[V:2] d8 | 
[V:3] G4F4 | 
[V:4] D,2G,2A,G,A,B, | 
[V:5] B,,2G,,2D,4 | 
[V:1] G6G2 | 
[V:2] z8 | 
[V:3] G8 | 
[V:4] CDECD2G,2 | 
[V:5] C,4G,3F, | 
[V:1] G4F4 | 
[V:2] z8 | 
[V:3] z8 | 
[V:4] B,2C2A,4 | 
[V:5] E,2C,2D,4 | 
[V:1] G8- | 
[V:2] d4d4 | 
[V:3] z8 | 
[V:4] z2G,3A,B,2 | 
[V:5] G,,4z2G,,2 | 
[V:1] G8 | 
[V:2] e4g4- | 
[V:3] G8 | 
[V:4] E,F,G,2C,2C2 | 
[V:5] C,3D,E,2C,2 | 
[V:1] z8 | 
[V:2] g4f4 | 
[V:3] G4A4 | 
[V:4] B,2D3CA,2- | 
[V:5] G,2G,,2D,4 | 
[V:1] z4z2E2 | 
[V:2] e8- | 
[V:3] c8 | 
[V:4] A,G,A,2E,4 | 
[V:5] A,,4C,4- | 
[V:1] G3AB2G2 | 
[V:2] e4d4 | 
[V:3] G8- | 
[V:4] z2E,2G,3A, | 
[V:5] C,4G,,4- | 
[V:1] d3cBAG2- | 
[V:2] d8- | 
[V:3] G8 | 
[V:4] B,2G,2D4 | 
[V:5] G,,8 | 
[V:1] G2^FEF4 | 
[V:2] d8 | 
[V:3] A8 | 
[V:4] z2D,3E,F,D, | 
[V:5] D,8 | 
[V:1] G8- | 
[V:2] z2d2B2c2 | 
[V:3] G8- | 
[V:4] E,2D,2E,2C,2 | 
[V:5] G,,4z2C,2- | 
[V:1] G8- | 
[V:2] d4e2g2- | 
[V:3] G8- | 
[V:4] G,4z2G,2- | 
[V:5] C,2B,,2C,2E,2- | 
[V:1] G8 | 
[V:2] gfd2e4 | 
[V:3] G8- | 
[V:4] G,A,B,2E,2G,2- | 
[V:5] E,D,B,,2C,4 | 
[V:1] z8 | 
[V:2] d3cB2G2 | 
[V:3] G8 | 
[V:4] G,F,D,2E,4 | 
[V:5] G,,4z2G,2- | 
[V:1] z2A2B3A | 
[V:2] A4G4 | 
[V:3] z8 | 
[V:4] D,4z2D2- | 
[V:5] G,2F,2G,3F, | 
[V:1] B2c2A2B2 | 
[V:2] z4z2d2- | 
[V:3] z8 | 
[V:4] D2C2D4 | 
[V:5] G,2A,2F,2G,2 | 
[V:1] G4z2A2 | 
[V:2] d2c2d4 | 
[V:3] z2G4F2 | 
[V:4] z8 | 
[V:5] E,4D,4 | 
[V:1] B3AB2c2 | 
[V:2] z8 | 
[V:3] G3FG2A2 | 
[V:4] z2D4C2 | 
[V:5] z8 | 
[V:1] A2B2G4 | 
[V:2] z2d4c2 | 
[V:3] F2G2E4 | 
[V:4] D4z4 | 
[V:5] z8 | 
[V:1] F2A2B2c2- | 
[V:2] d3cd2e2 | 
[V:3] D4z4 | 
[V:4] z8 | 
[V:5] z8 | 
[V:1] cBA4^G2 | 
[V:2] c2d2B4 | 
[V:3] z8 | 
[V:4] z2D,2E,4 | 
[V:5] z8 | 
[V:1] A4z2A2- | 
[V:2] A2f4f2 | 
[V:3] z8 | 
[V:4] F,2F,3G,A,F, | 
[V:5] z4D,4 | 
[V:1] A2G4^F2 | 
[V:2] e6d2 | 
[V:3] G4A4 | 
[V:4] G,2B,2C2A,2 | 
[V:5] E,4C,2D,2 | 
[V:1] G2B2A4- | 
[V:2] d4z2f2 | 
[V:3] G4F4 | 
[V:4] B,4z2D,E, | 
[V:5] G,,4D,4- | 
[V:1] A4z2A2 | 
[V:2] f2f2e4 | 
[V:3] A4c4 | 
[V:4] F,G,A,3G,A,2 | 
[V:5] D,4A,,4 | 
[V:1] A2A2G4 | 
[V:2] d8 | 
[V:3] A2d3cc2 | 
[V:4] F,4G,3A, | 
[V:5] D,2F,2E,4 | 
[V:1] F2A3G/F/AB | 
[V:2] z2f2f2f2 | 
[V:3] d8 | 
[V:4] _B,2A,2z2D,2 | 
[V:5] D,8 | 
[V:1] c2G3ABG | 
[V:2] e4d4- | 
[V:3] c4B4 | 
[V:4] E,D,E,F,G,4 | 
[V:5] A,,2C,2G,,2G,2- | 
[V:1] A4G4- | 
[V:2] d8 | 
[V:3] A4B4 | 
[V:4] D,4z2D,2 | 
[V:5] G,2F,2G,2G,,2 | 
[V:1] G8 | 
[V:2] z4d4 | 
[V:3] c4B4 | 
[V:4] E,D,E,F,G,4 | 
[V:5] C,3B,,G,,4 | 
[V:1] z2A4G2 | 
[V:2] d2c3de2 | 
[V:3] A4c4- | 
[V:4] D,2F,4E,2 | 
[V:5] z8 | 
[V:1] A2B3AG2- | 
[V:2] A2G2B2c2 | 
[V:3] c2B2G4 | 
[V:4] F,2G,2E,4 | 
[V:5] z8 | 
[V:1] G2^FEF4 | 
[V:2] d4z2d2 | 
[V:3] A4z4 | 
[V:4] D,4z2D,2 | 
[V:5] z8 | 
[V:1] G8- | 
[V:2] B6c2 | 
[V:3] G8- | 
[V:4] E,2D,2E,3C, | 
[V:5] z2G,,4C,2- | 
[V:1] G8 | 
[V:2] d4e2g2- | 
[V:3] G8- | 
[V:4] G,4z2G,2- | 
[V:5] C,2B,,2C,2E,2- | 
[V:1] z4G4 | 
[V:2] gfd2e4 | 
[V:3] G8- | 
[V:4] G,A,B,2E,2G,2- | 
[V:5] E,D,B,,2C,4 | 
[V:1] G2G2G3A | 
[V:2] d4z4 | 
[V:3] G8- | 
[V:4] G,F,D,2E,4 | 
[V:5] G,,8- | 
[V:1] B8 ||  
[V:2] d8 ||  
[V:3] G8 ||  
[V:4] D,8 ||  
[V:5] G,,8 ||  
[V:1]  [K:C] [M:2/1]z8 | 
[V:2]  [K:C] [M:2/1]z8 | 
[V:3]  [K:C] [M:2/1]G8- | 
[V:4]  [K:C] [M:2/1]z8 | 
[V:5]  [K:C] [M:2/1]G,,6A,,2 | 
[V:1] z8 | 
[V:2] z8 | 
[V:3] G8- | 
[V:4] z8 | 
[V:5] B,,4C,4 | 
[V:1] z8 | 
[V:2] z8 | 
[V:3] G8 | 
[V:4] z8 | 
[V:5] G,,4C,4- | 
[V:1] z8 | 
[V:2] z8 | 
[V:3] c8 | 
[V:4] z8 | 
[V:5] C,2D,2E,4 | 
[V:1] z8 | 
[V:2] z8 | 
[V:3] c8 | 
[V:4] z8 | 
[V:5] F,4C,4- | 
[V:1] z8 | 
[V:2] z8 | 
[V:3] c8 | 
[V:4] z8 | 
[V:5] C,2D,2E,2F,2 | 
[V:1] z8 | 
[V:2] z8 | 
[V:3] B8- | 
[V:4] z8 | 
[V:5] G,4G,,4- | 
[V:1] z8 | 
[V:2] z8 | 
[V:3] B8 | 
[V:4] z8 | 
[V:5] G,,2A,,2B,,2C,2 | 
[V:1] z8 | 
[V:2] z8 | 
[V:3] A8 | 
[V:4] z8 | 
[V:5] D,2E,2F,2G,2 | 
[V:1] z8 | 
[V:2] z8 | 
[V:3] c8- | 
[V:4] z8 | 
[V:5] A,3G,E,2F,2- | 
[V:1] z8 | 
[V:2] z8 | 
[V:3] c8 | 
[V:4] z8 | 
[V:5] F,E,F,D,E,4 | 
[V:1] z8 | 
[V:2] z8 | 
[V:3] d8- | 
[V:4] z8 | 
[V:5] D,8 | 
[V:1] z8 | 
[V:2] z8 | 
[V:3] d8 | 
[V:4] z8 | 
[V:5] z4D,4 | 
[V:1] z8 | 
[V:2] z8 | 
[V:3] z4d4 | 
[V:4] z8 | 
[V:5] C,2B,,4A,,G,, | 
[V:1] z8 | 
[V:2] z8 | 
[V:3] c2B4AG | 
[V:4] z8 | 
[V:5] A,,2B,,2G,,2G,2 | 
[V:1] z8 | 
[V:2] z8 | 
[V:3] A2B2G4 | 
[V:4] z8 | 
[V:5] F,2G,4F,E, | 
[V:1] z8 | 
[V:2] z8 | 
[V:3] A2B4AG | 
[V:4] z8 | 
[V:5] F,2G,2G,,2G,2- | 
[V:1] z8 | 
[V:2] z8 | 
[V:3] A4B4 | 
[V:4] z8 | 
[V:5] G,2F,2G,2G,,2 | 
[V:1] z8 | 
[V:2] z8 | 
[V:3] G4z4 | 
[V:4] z8 | 
[V:5] z2G,4F,2 | 
[V:1] z8 | 
[V:2] z8 | 
[V:3] G4G4 | 
[V:4] z8 | 
[V:5] G,2_B,3A,G,2- | 
[V:1] z8 | 
[V:2] z8 | 
[V:3] d4d4 | 
[V:4] z8 | 
[V:5] G,2F,E,F,2G,2 | 
[V:1] z8 | 
[V:2] z8 | 
[V:3] c4d4 | 
[V:4] z8 | 
[V:5] E,4D,4 | 
[V:1] z8 | 
[V:2] z8 | 
[V:3] d8 | 
[V:4] z8 | 
[V:5] z2D,4C,B,, | 
[V:1] z8 | 
[V:2] z8 | 
[V:3] z2d4cB | 
[V:4] z8 | 
[V:5] C,2D,3E,F,D, | 
[V:1] z8 | 
[V:2] z8 | 
[V:3] c2d3efd | 
[V:4] z8 | 
[V:5] E,2D,2z2D,2 | 
[V:1] z8 | 
[V:2] z8 | 
[V:3] e2d2z2d2 | 
[V:4] z8 | 
[V:5] C,2G,3A,B,2 | 
[V:1] z8 | 
[V:2] z8 | 
[V:3] c2d3ef2 | 
[V:4] z8 | 
[V:5] A,2G,4F,2 | 
[V:1] z8 | 
[V:2] z8 | 
[V:3] e2d4c2 | 
[V:4] z8 | 
[V:5] G,4F,2E,2 | 
[V:1] z8 | 
[V:2] z8 | 
[V:3] B2A3Bcd | 
[V:4] z8 | 
[V:5] D,3E,F,G,E,2 | 
[V:1] z8 | 
[V:2] z8 | 
[V:3] B2A2f4 | 
[V:4] z8 | 
[V:5] D,2F,4E,F, | 
[V:1] z8 | 
[V:2] z8 | 
[V:3] e2d4^c2 | 
[V:4] z8 | 
[V:5] G,3F,E,4 | 
[V:1] z8 | 
[V:2] z8 | 
[V:3] d4z4 | 
[V:4] z8 | 
[V:5] D,8- | 
[V:1] z8 | 
[V:2] z8 | 
[V:3] d4f4 | 
[V:4] z8 | 
[V:5] D,8 | 
[V:1] z8 | 
[V:2] z8 | 
[V:3] e2d4cB | 
[V:4] z8 | 
[V:5] z4D,4 | 
[V:1] z8 | 
[V:2] z8 | 
[V:3] AGABc2de | 
[V:4] z8 | 
[V:5] F,4E,2D,2- | 
[V:1] z8 | 
[V:2] z8 | 
[V:3] fde2d2f2 | 
[V:4] z8 | 
[V:5] D,2C,2B,,2A,,2- | 
[V:1] z8 | 
[V:2] z8 | 
[V:3] e2d4c2 | 
[V:4] z8 | 
[V:5] A,,2D,E,F,G,A,2- | 
[V:1] z8 | 
[V:2] z8 | 
[V:3] B4A4 | 
[V:4] z8 | 
[V:5] A,G,G,4^F,2 | 
[V:1] z8 | 
[V:2] z8 | 
[V:3] G8- | 
[V:4] z8 | 
[V:5] [M:3/2](3:2:2G,8z4 | 
[V:1] z8 | 
[V:2] z8 | 
[V:3] G8 | 
[V:4] z8 | 
[V:5] (3:2:4G,,6A,,2B,,2C,2 | 
[V:1] z8 | 
[V:2] z8 | 
[V:3] [M:3/3](3:2:4F6G2A2B2 | 
[V:4] z8 | 
[V:5] (3:2:4D,2E,2F,6E,2 | 
[V:1] z8 | 
[V:2] z8 | 
[V:3] (3:2:4c2d2e6d2 | 
[V:4] z8 | 
[V:5] (3:2:4C,6D,2E,2F,2 | 
[V:1] z8 | 
[V:2] z8 | 
[V:3] (3:2:2d8z4 | 
[V:4] z8 | 
[V:5] (3:2:4G,2A,2_B,6A,2 | 
[V:1] z8 | 
[V:2] z8 | 
[V:3] (3d6B2c4 | 
[V:4] z8 | 
[V:5] (3F,4G,4A,4 | 
[V:1] z8 | 
[V:2] z8 | 
[V:3] (3:2:2d8c4 | 
[V:4] z8 | 
[V:5] (3:2:5D,2E,2F,2G,2A,4 | 
[V:1] z8 | 
[V:2] z8 | 
[V:3] (3:2:2B4A8 | 
[V:4] z8 | 
[V:5] (3:2:4G,6^F,E,F,4 | 
[V:1] z8 | 
[V:2] z8 | 
[V:3] [M:2/1]G4z2G2- | 
[V:4] z8 | 
[V:5] [M:2/1]G,8 | 
[V:1] z8 | 
[V:2] z8 | 
[V:3] GABcd2D2- | 
[V:4] z8 | 
[V:5] z2G,,3A,,B,,C, | 
[V:1] z8 | 
[V:2] z8 | 
[V:3] DEFGABcA | 
[V:4] z8 | 
[V:5] D,3E,F,D,E,F, | 
[V:1] z8 | 
[V:2] z8 | 
[V:3] Bcd4A2- | 
[V:4] z8 | 
[V:5] G,4D,3C, | 
[V:1] z8 | 
[V:2] z8 | 
[V:3] AGABc4 | 
[V:4] z8 | 
[V:5] D,E,F,4C,2- | 
[V:1] z8 | 
[V:2] z8 | 
[V:3] G3FGABG | 
[V:4] z8 | 
[V:5] C,B,,C,D,E,C,D,E, | 
[V:1] z8 | 
[V:2] z8 | 
[V:3] ABc3BAG | 
[V:4] z8 | 
[V:5] F,4E,4 | 
[V:1] z8 | 
[V:2] z8 | 
[V:3] FED2d3c | 
[V:4] z8 | 
[V:5] D,3C,B,,A,,G,,2 | 
[V:1] z8 | 
[V:2] z8 | 
[V:3] B2A2G2B2 | 
[V:4] z8 | 
[V:5] G,3F,E,2D,2 | 
[V:1] z8 | 
[V:2] z8 | 
[V:3] A2G4^F2 | 
[V:4] z8 | 
[V:5] C,2B,,2C,2D,2 | 
[V:1] z8 ||  
[V:2] z8 ||  
[V:3] G8 ||  
[V:4] z8 ||  
[V:5] G,,8 ||  
[V:1]  [K:C] [M:2/1]z8 | 
[V:2]  [K:C] [M:2/1]z8 | 
[V:3]  [K:C] [M:2/1]z8 | 
[V:4]  [K:C] [M:2/1]G,4C4- | 
[V:5]  [K:C] [M:2/1]z4C,4 | 
[V:1] z8 | 
[V:2] c4f4 | 
[V:3] z8 | 
[V:4] C4C4 | 
[V:5] F,8 | 
[V:1] z8 | 
[V:2] z2f2d2e2- | 
[V:3] z8 | 
[V:4] D4B,4 | 
[V:5] F,4G,4 | 
[V:1] z8 | 
[V:2] edd4c2 | 
[V:3] z8 | 
[V:4] A,4z2G,A, | 
[V:5] D,2F,2E,4 | 
[V:1] z8 | 
[V:2] d2f4e2 | 
[V:3] z8 | 
[V:4] B,CD3CC2- | 
[V:5] D,4_B,,2C,2 | 
[V:1] z4G4 | 
[V:2] d4c4 | 
[V:3] G4c4- | 
[V:4] C2B,2C4 | 
[V:5] G,4C,4- | 
[V:1] c8 | 
[V:2] z4c4 | 
[V:3] c4z4 | 
[V:4] z2C,2F,4- | 
[V:5] C,4z4 | 
[V:1] z2c2BAA2- | 
[V:2] f4z2f2 | 
[V:3] c4d4 | 
[V:4] F,4F,4 | 
[V:5] z8 | 
[V:1] AGGF/G/A4 | 
[V:2] edd4^c2 | 
[V:3] B4A4 | 
[V:4] G,4E,4 | 
[V:5] z4A,,4 | 
[V:1] z2F4ED | 
[V:2] d4z4 | 
[V:3] A4z4 | 
[V:4] D,6F,2 | 
[V:5] D,3E,F,G,A,2- | 
[V:1] CDECD4- | 
[V:2] z4z2A2 | 
[V:3] G4A4 | 
[V:4] E,4D,4 | 
[V:5] A,2G,4^F,2 | 
[V:1] D2G3ABG | 
[V:2] B2G2B4 | 
[V:3] G8 | 
[V:4] z4z2D,2- | 
[V:5] G,4G,,4 | 
[V:1] A4G4- | 
[V:2] A2d2B3c | 
[V:3] F4G4 | 
[V:4] D,E,F,D,E,D,D2- | 
[V:5] D,4G,,4 | 
[V:1] G4z4 | 
[V:2] d4G2g2- | 
[V:3] G8- | 
[V:4] DCB,A,B,2G,2 | 
[V:5] z2G,3F,E,D, | 
[V:1] z8 | 
[V:2] g2e2fedc | 
[V:3] G4F4 | 
[V:4] B,2C2A,4 | 
[V:5] E,2C,2D,4 | 
[V:1] z4G4- | 
[V:2] B4z2B2- | 
[V:3] G8- | 
[V:4] z2G,3F,D,2 | 
[V:5] G,,8 | 
[V:1] G2A2B4 | 
[V:2] B2c2d4 | 
[V:3] G8 | 
[V:4] E,4D,2G,2- | 
[V:5] z4G,,4 | 
[V:1] c8 | 
[V:2] e8 | 
[V:3] E8 | 
[V:4] G,2C,2z2G,2 | 
[V:5] C,8 | 
[V:1] z4A4 | 
[V:2] c3BA4 | 
[V:3] F8 | 
[V:4] A,4C4 | 
[V:5] F,,8 | 
[V:1] B6c2 | 
[V:2] G8 | 
[V:3] D4E4 | 
[V:4] B,4G,4 | 
[V:5] G,,4z2G,2- | 
[V:1] d4z2A2 | 
[V:2] z8 | 
[V:3] D8 | 
[V:4] A,8 | 
[V:5] G,2^F,E,F,4 | 
[V:1] B3cd4 | 
[V:2] d6cB | 
[V:3] z8 | 
[V:4] z2G,3F,E,D, | 
[V:5] G,4z2G,2- | 
[V:1] A4z4 | 
[V:2] c4d4 | 
[V:3] z4z2D2- | 
[V:4] E,4D,4 | 
[V:5] G,2F,E,F,4 | 
[V:1] z8 | 
[V:2] d4z4 | 
[V:3] DCDEF2E2- | 
[V:4] z2_B,4A,2 | 
[V:5] _B,,3C,D,2C,2- | 
[V:1] z4A4 | 
[V:2] z8 | 
[V:3] E2D4C2 | 
[V:4] G,4F,4 | 
[V:5] C,2_B,,2A,,4 | 
[V:1] B3cd4 | 
[V:2] z4d4 | 
[V:3] D8- | 
[V:4] G,8 | 
[V:5] G,,8- | 
[V:1] z2d2B2e2- | 
[V:2] g6g2 | 
[V:3] D4z4 | 
[V:4] z4G,4- | 
[V:5] G,,8 | 
[V:1] edd4c2 | 
[V:2] g3fe4 | 
[V:3] z8 | 
[V:4] G,4A,4 | 
[V:5] z8 | 
[V:1] B2A3GG2- | 
[V:2] d8 | 
[V:3] z8 | 
[V:4] D,2F,2G,2B,2 | 
[V:5] z8 | 
[V:1] G2^F2G4- | 
[V:2] d4d4 | 
[V:3] D4G4- | 
[V:4] A,2D2B,CDB, | 
[V:5] z4G,,4 | 
[V:1] G4z4 | 
[V:2] e4g4 | 
[V:3] G2G2G4- | 
[V:4] C2C,D,E,F,G,A, | 
[V:5] C,6C,2 | 
[V:1] z4A4 | 
[V:2] d4d4- | 
[V:3] G4F4 | 
[V:4] B,CD3CA,2 | 
[V:5] B,,2G,,2D,4 | 
[V:1] B3cd4 | 
[V:2] d8 | 
[V:3] G4G4- | 
[V:4] z2G,A,B,CDB, | 
[V:5] G,,4z2G,,2 | 
[V:1] G8 | 
[V:2] z4z2G2 | 
[V:3] G4G4 | 
[V:4] C4B,4 | 
[V:5] C,3D,E,4 | 
[V:1] z8 | 
[V:2] c3de4 | 
[V:3] A4c4- | 
[V:4] z2A,3G,E,2 | 
[V:5] A,,8- | 
[V:1] z2C2E3F | 
[V:2] A8 | 
[V:3] c8 | 
[V:4] F,2E,2C,4 | 
[V:5] A,,8 | 
[V:1] G4C4 | 
[V:2] z4z2AB | 
[V:3] G4A4- | 
[V:4] z2C,2F,3G, | 
[V:5] z8 | 
[V:1] z2C2F3G | 
[V:2] cdecd2D2 | 
[V:3] A4A4- | 
[V:4] A,4D,4- | 
[V:5] z8 | 
[V:1] A2F2E2A2- | 
[V:2] F3GA4 | 
[V:3] A2d4c2 | 
[V:4] D,4z2A,2 | 
[V:5] z4z2A,,2 | 
[V:1] AGG4^F2 | 
[V:2] D2d3cA2 | 
[V:3] d2B2A4 | 
[V:4] F,2G,2D,2F,2 | 
[V:5] _B,,3C,D,4 | 
[V:1] G8 | 
[V:2] B6c2 | 
[V:3] G8 | 
[V:4] E,2D,2E,4 | 
[V:5] G,,4z2G,2- | 
[V:1] z2A2B3G | 
[V:2] d8 | 
[V:3] z8 | 
[V:4] D,4z2D2- | 
[V:5] G,2F,2G,3F, | 
[V:1] B2c2A2B2 | 
[V:2] z4z2d2- | 
[V:3] z8 | 
[V:4] D2C2D4 | 
[V:5] G,2A,2F,2G,2 | 
[V:1] G4z2A2 | 
[V:2] d2c2d4- | 
[V:3] z2G4F2 | 
[V:4] z8 | 
[V:5] E,4D,4 | 
[V:1] B3AB2c2 | 
[V:2] d4z4 | 
[V:3] G3FG2A2 | 
[V:4] z2D4C2 | 
[V:5] z8 | 
[V:1] A2B2G4 | 
[V:2] z2d4c2 | 
[V:3] F2G2E4 | 
[V:4] D4z4 | 
[V:5] z8 | 
[V:1] F2A2B2c2- | 
[V:2] d3cd2e2 | 
[V:3] D4z4 | 
[V:4] z8 | 
[V:5] z8 | 
[V:1] cBA4^G2 | 
[V:2] c2d2B4 | 
[V:3] z8 | 
[V:4] z2D,2E,4 | 
[V:5] z8 | 
[V:1] A4z2A2- | 
[V:2] A2f4f2 | 
[V:3] z8 | 
[V:4] F,2F,3G,A,F, | 
[V:5] D,8 | 
[V:1] AGG4^F2 | 
[V:2] e6d2 | 
[V:3] G4A4 | 
[V:4] G,2B,2C2A,2 | 
[V:5] E,4C,2D,2 | 
[V:1] G2B2A4- | 
[V:2] d4z2f2 | 
[V:3] G4F4 | 
[V:4] B,3CD2D,E, | 
[V:5] G,,4D,4- | 
[V:1] A4z2A2 | 
[V:2] f2f2e4 | 
[V:3] A4c4 | 
[V:4] F,G,A,3G,A,2 | 
[V:5] D,4A,,4 | 
[V:1] A2A2G4 | 
[V:2] d4z4 | 
[V:3] A2d3cc2 | 
[V:4] F,4G,3A, | 
[V:5] D,2F,2E,4 | 
[V:1] F2A3G/F/AB | 
[V:2] z2f4f2 | 
[V:3] d8 | 
[V:4] _B,2A,2z2D,2 | 
[V:5] D,8 | 
[V:1] c2G3ABG | 
[V:2] e4d4- | 
[V:3] c4B4 | 
[V:4] E,D,E,F,G,4 | 
[V:5] A,,2C,2G,,2G,2- | 
[V:1] A4G4- | 
[V:2] d8 | 
[V:3] A4B4 | 
[V:4] D,4z2D,2 | 
[V:5] G,F,F,E,G,2G,,2 | 
[V:1] G4G4 | 
[V:2] G4z4 | 
[V:3] c4B4 | 
[V:4] E,D,E,F,G,4 | 
[V:5] C,3B,,G,,2G,2- | 
[V:1] A4B4 | 
[V:2] d8 | 
[V:3] A4G4 | 
[V:4] D,4z2G,2- | 
[V:5] G,2F,2G,2G,,2 | 
[V:1] A2A3GG2 | 
[V:2] d8 | 
[V:3] A4B4 | 
[V:4] G,F,F,2G,4 | 
[V:5] D,4G,,2G,2- | 
[V:1] A4z2DE | 
[V:2] d8 | 
[V:3] A4G4 | 
[V:4] D,2A,2_B,3A, | 
[V:5] G,2F,2G,2G,,2 | 
[V:1] FGA3G^FE | 
[V:2] !fermata!d8- | 
[V:3] !fermata!A8- | 
[V:4] F,6D,2 | 
[V:5] !fermata!D,8- | 
[V:1] !fermata!^F8 | 
[V:2] d8 | 
[V:3] A8 | 
[V:4] !fermata!D,8- | 
[V:5] D,8 | 
[V:1] G8 | 
[V:2] d8 | 
[V:3] G8 | 
[V:4] D,8 | 
[V:5] G,,8 | 
[V:1] G8 |]  
[V:2] d8 |]  
[V:3] G8 |]  
[V:4] D,8 |]  
[V:5] G,,8 |]  



